Sources/FrostedUI/Resources/Icons.xcassets/globe32.imageset/globe-32.svg

<svg width="32" height="32" viewBox="0 0 32 32" fill="none" xmlns="http://www.w3.org/2000/svg" data-fui-icon="true">
  <path
    d="M16 1C24.2843 1 31 7.71573 31 16C31 24.2843 24.2843 31 16 31C7.71573 31 1 24.2843 1 16C1 7.71573 7.71573 1 16 1ZM10.9961 21.5C11.3022 23.1176 11.7372 24.5662 12.2676 25.7754C12.8082 27.0078 13.4327 27.9579 14.0879 28.5898C14.7396 29.2183 15.3845 29.5 16 29.5C16.6155 29.5 17.2604 29.2183 17.9121 28.5898C18.5673 27.9579 19.1919 27.0078 19.7324 25.7754C20.2628 24.5662 20.6978 23.1176 21.0039 21.5H10.9961ZM3.66797 21.5C5.30483 25.1638 8.52665 27.9643 12.4619 29.0303C11.8674 28.3009 11.342 27.4003 10.8936 26.3779C10.2822 24.984 9.79801 23.3287 9.47168 21.5H3.66797ZM22.5283 21.5C22.202 23.3287 21.7178 24.984 21.1064 26.3779C20.6579 27.4005 20.1317 28.3008 19.5371 29.0303C23.4728 27.9645 26.695 25.164 28.332 21.5H22.5283ZM3.10449 12C2.7128 13.2641 2.5 14.6071 2.5 16C2.5 17.3929 2.71276 18.7359 3.10449 20H9.24512C9.08602 18.7246 9 17.3828 9 16C9 14.6172 9.08602 13.2754 9.24512 12H3.10449ZM10.7568 12C10.5909 13.2623 10.5 14.6048 10.5 16C10.5 17.3951 10.5909 18.7377 10.7568 20H21.2432C21.4091 18.7377 21.5 17.3952 21.5 16C21.5 14.6048 21.4091 13.2623 21.2432 12H10.7568ZM22.7549 12C22.914 13.2754 23 14.6172 23 16C23 17.3828 22.914 18.7246 22.7549 20H28.8955C29.2872 18.7359 29.5 17.3929 29.5 16C29.5 14.6071 29.2872 13.2641 28.8955 12H22.7549ZM12.4619 2.96875C8.52648 4.03469 5.30477 6.83574 3.66797 10.5H9.47168C9.79801 8.67129 10.2822 7.01597 10.8936 5.62207C11.3421 4.59947 11.8672 3.69819 12.4619 2.96875ZM16 2.5C15.3845 2.5 14.7396 2.78169 14.0879 3.41016C13.4327 4.04208 12.8082 4.99221 12.2676 6.22461C11.7372 7.43385 11.3022 8.88239 10.9961 10.5H21.0039C20.6978 8.88239 20.2628 7.43385 19.7324 6.22461C19.1919 4.99221 18.5673 4.04208 17.9121 3.41016C17.2604 2.78169 16.6155 2.5 16 2.5ZM19.5371 2.96875C20.1319 3.69828 20.6578 4.59924 21.1064 5.62207C21.7178 7.01597 22.202 8.67129 22.5283 10.5H28.332C26.6951 6.83555 23.4729 4.0345 19.5371 2.96875Z"
    fill="currentColor"
  />
</svg>

<svg xmlns="http://www.w3.org/2000/svg" width="32" height="32" fill="none" data-fui-icon="true" viewBox="0 0 32 32"><path fill="currentColor" d="M16 1c8.284 0 15 6.716 15 15s-6.716 15-15 15S1 24.284 1 16 7.716 1 16 1m-5.004 20.5c.306 1.618.741 3.066 1.272 4.275.54 1.233 1.165 2.183 1.82 2.815.652.628 1.297.91 1.912.91.616 0 1.26-.282 1.912-.91.655-.632 1.28-1.582 1.82-2.815.53-1.209.966-2.657 1.272-4.275zm-7.328 0a13.53 13.53 0 0 0 8.794 7.53c-.595-.73-1.12-1.63-1.568-2.652-.612-1.394-1.096-3.05-1.422-4.878zm18.86 0c-.326 1.829-.81 3.484-1.422 4.878-.448 1.023-.974 1.923-1.569 2.652a13.53 13.53 0 0 0 8.795-7.53zM3.104 12a13.5 13.5 0 0 0-.604 4c0 1.393.213 2.736.604 4h6.141A32 32 0 0 1 9 16c0-1.383.086-2.725.245-4zm7.653 0a31 31 0 0 0-.257 4c0 1.395.09 2.738.257 4h10.486c.166-1.262.257-2.605.257-4s-.09-2.738-.257-4zm11.998 0c.159 1.275.245 2.617.245 4s-.086 2.725-.245 4h6.14c.392-1.264.605-2.607.605-4s-.213-2.736-.605-4zM12.462 2.969A13.53 13.53 0 0 0 3.668 10.5h5.804c.326-1.829.81-3.484 1.422-4.878.448-1.023.973-1.924 1.568-2.653M16 2.5c-.616 0-1.26.282-1.912.91-.655.632-1.28 1.582-1.82 2.815-.53 1.209-.966 2.657-1.272 4.275h10.008c-.306-1.618-.741-3.066-1.272-4.275-.54-1.233-1.165-2.183-1.82-2.815-.652-.628-1.296-.91-1.912-.91m3.537.469c.595.73 1.12 1.63 1.57 2.653.61 1.394 1.095 3.05 1.421 4.878h5.804a13.53 13.53 0 0 0-8.795-7.531"/></svg>
